;FLAVOR:Marlin
;TIME:1423
;Filament used: 0.960209m
;Layer height: 0.2
;MINX:76.5
;MINY:100.5
;MINZ:0.2
;MAXX:158.5
;MAXY:134.5
;MAXZ:12
;Generated with Cura_SteamEngine 5.2.1
M140 S50
M105
M190 S50
M104 S200
M105
M109 S200
M82 ;absolute extrusion mode
; Ender 3 Custom Start G-code
G92 E0 ; Reset Extruder
G28 ; Home all axes
G1 Z2.0 F3000 ; Move Z Axis up little to prevent scratching of Heat Bed
G1 X0.1 Y20 Z0.3 F5000.0 ; Move to start position
G1 X0.1 Y200.0 Z0.3 F1500.0 E15 ; Draw the first line
G1 X0.4 Y200.0 Z0.3 F5000.0 ; Move to side a little
G1 X0.4 Y20 Z0.3 F1500.0 E30 ; Draw the second line
G92 E0 ; Reset Extruder
G1 Z2.0 F3000 ; Move Z Axis up little to prevent scratching of Heat Bed
G1 X5 Y20 Z0.3 F5000.0 ; Move over to prevent blob squish
G92 E0
G92 E0
G1 F2700 E-5
;LAYER_COUNT:60
;LAYER:0
M107
G0 F6000 X80.386 Y103.127 Z0.2
;TYPE:SKIRT
G1 F2700 E0
G1 F1200 X81.126 Y102.551 E0.03119
G1 X81.912 Y102.039 E0.06239
G1 X82.739 Y101.597 E0.09358
G1 X83.601 Y101.227 E0.12478
G1 X84.491 Y100.931 E0.15597
G1 X85.403 Y100.713 E0.18716
G1 X86.33 Y100.572 E0.21835
G1 X87.201 Y100.513 E0.24738
G1 X87.83 Y100.5 E0.26831
G1 X146.951 Y100.501 E2.23468
G1 X147.649 Y100.511 E2.2579
G1 X148.585 Y100.565 E2.28908
G1 X149.513 Y100.697 E2.32026
G1 X150.427 Y100.909 E2.35147
G1 X151.319 Y101.198 E2.38265
G1 X152.184 Y101.561 E2.41385
G1 X153.014 Y101.997 E2.44504
G1 X153.805 Y102.502 E2.47625
G1 X154.549 Y103.073 E2.50744
G1 X155.242 Y103.705 E2.53864
G1 X155.879 Y104.393 E2.56982
G1 X156.454 Y105.134 E2.60102
G1 X156.965 Y105.92 E2.6322
G1 X157.407 Y106.748 E2.66342
G1 X157.776 Y107.61 E2.6946
G1 X158.071 Y108.5 E2.72579
G1 X158.289 Y109.412 E2.75698
G1 X158.429 Y110.34 E2.78819
G1 X158.487 Y111.201 E2.81689
G1 X158.5 Y111.83 E2.83782
G1 X158.499 Y122.9 E3.20601
G1 X158.49 Y123.627 E3.23019
G1 X158.439 Y124.564 E3.2614
G1 X158.307 Y125.492 E3.29258
G1 X158.098 Y126.406 E3.32376
G1 X157.811 Y127.299 E3.35496
G1 X157.449 Y128.165 E3.38618
G1 X157.015 Y128.996 E3.41736
G1 X156.511 Y129.787 E3.44855
G1 X155.942 Y130.532 E3.47973
G1 X155.311 Y131.227 E3.51095
G1 X154.624 Y131.865 E3.54214
G1 X153.885 Y132.442 E3.57332
G1 X153.099 Y132.954 E3.60452
G1 X152.273 Y133.397 E3.6357
G1 X151.411 Y133.769 E3.66692
G1 X150.522 Y134.065 E3.69809
G1 X149.61 Y134.285 E3.72929
G1 X148.683 Y134.426 E3.76048
G1 X147.799 Y134.487 E3.78995
G1 X147.17 Y134.5 E3.81087
G1 X88.065 Y134.499 E5.77671
G1 X87.367 Y134.49 E5.79993
G1 X86.431 Y134.438 E5.83111
G1 X85.502 Y134.306 E5.86232
G1 X84.588 Y134.096 E5.89351
G1 X83.695 Y133.809 E5.92471
G1 X82.83 Y133.446 E5.95591
G1 X81.999 Y133.012 E5.98709
G1 X81.208 Y132.508 E6.01829
G1 X80.463 Y131.938 E6.04949
G1 X79.769 Y131.307 E6.08068
G1 X79.132 Y130.62 E6.11184
G1 X78.555 Y129.88 E6.14305
G1 X78.043 Y129.094 E6.17425
G1 X77.6 Y128.267 E6.20546
G1 X77.229 Y127.406 E6.23664
G1 X76.933 Y126.516 E6.26784
G1 X76.714 Y125.604 E6.29903
G1 X76.573 Y124.677 E6.33022
G1 X76.513 Y123.788 E6.35985
G1 X76.5 Y123.158 E6.38081
G1 X76.501 Y112.025 E6.7511
G1 X76.51 Y111.36 E6.77322
G1 X76.563 Y110.424 E6.8044
G1 X76.695 Y109.495 E6.83561
G1 X76.906 Y108.581 E6.86681
G1 X77.194 Y107.689 E6.89798
G1 X77.557 Y106.824 E6.92918
G1 X77.992 Y105.993 E6.96038
G1 X78.496 Y105.203 E6.99155
G1 X79.066 Y104.458 E7.02275
G1 X79.698 Y103.764 E7.05397
G1 X80.386 Y103.127 E7.08515
G0 F6000 X80.774 Y103.323
G1 F1200 X81.51 Y102.77 E7.11577
G1 X82.291 Y102.282 E7.1464
G1 X83.111 Y101.864 E7.17701
G1 X83.965 Y101.519 E7.20765
G1 X84.845 Y101.249 E7.23826
G1 X85.745 Y101.057 E7.26887
G1 X86.659 Y100.943 E7.29951
G1 X87.212 Y100.913 E7.31793
G1 X87.83 Y100.9 E7.33849
G1 X146.945 Y100.901 E9.30466
G1 X147.643 Y100.911 E9.32788
G1 X148.562 Y100.964 E9.35849
G1 X149.473 Y101.097 E9.38912
G1 X150.369 Y101.308 E9.41973
G1 X151.243 Y101.596 E9.45034
G1 X152.09 Y101.959 E9.48099
G1 X152.901 Y102.394 E9.5116
G1 X153.671 Y102.898 E9.54221
G1 X154.395 Y103.467 E9.57283
G1 X155.067 Y104.097 E9.60347
G1 X155.682 Y104.782 E9.63409
G1 X156.235 Y105.518 E9.66471
G1 X156.722 Y106.299 E9.69532
G1 X157.139 Y107.12 E9.72595
G1 X157.484 Y107.974 E9.75658
G1 X157.753 Y108.854 E9.78719
G1 X157.945 Y109.755 E9.81783
G1 X158.058 Y110.668 E9.84843
G1 X158.087 Y111.212 E9.86654
G1 X158.1 Y111.83 E9.8871
G1 X158.099 Y122.895 E10.25513
G1 X158.09 Y123.622 E10.27931
G1 X158.039 Y124.541 E10.30992
G1 X157.908 Y125.453 E10.34057
G1 X157.698 Y126.349 E10.37118
G1 X157.412 Y127.224 E10.40179
G1 X157.051 Y128.071 E10.43242
G1 X156.617 Y128.883 E10.46304
G1 X156.115 Y129.655 E10.49367
G1 X155.547 Y130.38 E10.5243
G1 X154.919 Y131.053 E10.55492
G1 X154.235 Y131.669 E10.58553
G1 X153.5 Y132.223 E10.61614
G1 X152.72 Y132.712 E10.64676
G1 X151.9 Y133.131 E10.67739
G1 X151.047 Y133.477 E10.70801
G1 X150.167 Y133.748 E10.73863
G1 X149.267 Y133.941 E10.76925
G1 X148.353 Y134.056 E10.79989
G1 X147.788 Y134.087 E10.81871
G1 X147.17 Y134.1 E10.83927
G1 X88.07 Y134.099 E12.80494
G1 X87.372 Y134.09 E12.82816
G1 X86.453 Y134.038 E12.85877
G1 X85.542 Y133.907 E12.88939
G1 X84.646 Y133.697 E12.91999
G1 X83.771 Y133.41 E12.95062
G1 X82.924 Y133.048 E12.98126
G1 X82.112 Y132.614 E13.01188
G1 X81.341 Y132.112 E13.04248
G1 X80.616 Y131.544 E13.07311
G1 X79.943 Y130.915 E13.10375
G1 X79.328 Y130.231 E13.13435
G1 X78.774 Y129.496 E13.16496
G1 X78.286 Y128.715 E13.19559
G1 X77.867 Y127.895 E13.22622
G1 X77.521 Y127.042 E13.25683
G1 X77.251 Y126.162 E13.28745
G1 X77.058 Y125.261 E13.3181
G1 X76.944 Y124.348 E13.3487
G1 X76.913 Y123.777 E13.36772
G1 X76.9 Y123.158 E13.38831
G1 X76.901 Y112.031 E13.7584
G1 X76.91 Y111.366 E13.78052
G1 X76.962 Y110.446 E13.81116
G1 X77.094 Y109.535 E13.84178
G1 X77.305 Y108.639 E13.8724
G1 X77.592 Y107.764 E13.90302
G1 X77.955 Y106.918 E13.93364
G1 X78.389 Y106.106 E13.96427
G1 X78.892 Y105.335 E13.99488
G1 X79.461 Y104.611 E14.02551
G1 X80.089 Y103.939 E14.0561
G1 X80.774 Y103.323 E14.08674
G0 F6000 X81.162 Y103.524
G1 F1200 X81.894 Y102.994 E14.1168
G1 X82.669 Y102.531 E14.14683
G1 X83.482 Y102.138 E14.17686
G1 X84.327 Y101.818 E14.20691
G1 X85.196 Y101.575 E14.23693
G1 X86.084 Y101.409 E14.26697
G1 X87.223 Y101.313 E14.30499
G1 X87.83 Y101.3 E14.32518
G1 X146.939 Y101.301 E16.29116
G1 X147.637 Y101.311 E16.31438
G1 X148.539 Y101.364 E16.34443
G1 X149.432 Y101.496 E16.37445
G1 X150.31 Y101.707 E16.40449
G1 X151.166 Y101.995 E16.43452
G1 X151.993 Y102.357 E16.46455
G1 X152.785 Y102.792 E16.4946
G1 X153.536 Y103.294 E16.52465
G1 X154.239 Y103.861 E16.55469
G1 X154.889 Y104.488 E16.58473
G1 X155.481 Y105.17 E16.61476
G1 X156.011 Y105.901 E16.64479
G1 X156.473 Y106.677 E16.67483
G1 X156.866 Y107.49 E16.70487
G1 X157.184 Y108.335 E16.7349
G1 X157.427 Y109.205 E16.76494
G1 X157.592 Y110.093 E16.79498
G1 X157.687 Y111.223 E16.8327
G1 X157.7 Y111.83 E16.85289
G1 X157.699 Y122.89 E17.22075
G1 X157.69 Y123.617 E17.24493
G1 X157.639 Y124.519 E17.27498
G1 X157.508 Y125.413 E17.30503
G1 X157.299 Y126.291 E17.33505
G1 X157.013 Y127.148 E17.3651
G1 X156.652 Y127.976 E17.39514
G1 X156.22 Y128.768 E17.42515
G1 X155.719 Y129.52 E17.4552
G1 X155.153 Y130.224 E17.48524
G1 X154.528 Y130.875 E17.51526
G1 X153.847 Y131.469 E17.54532
G1 X153.116 Y132 E17.57537
G1 X152.342 Y132.464 E17.60538
G1 X151.529 Y132.858 E17.63543
G1 X150.685 Y133.178 E17.66545
G1 X149.815 Y133.423 E17.69551
G1 X148.928 Y133.589 E17.72553
G1 X147.777 Y133.687 E17.76395
G1 X147.17 Y133.7 E17.78414
G1 X88.075 Y133.699 E19.74965
G1 X87.377 Y133.69 E19.77287
G1 X86.476 Y133.639 E19.80288
G1 X85.582 Y133.507 E19.83294
G1 X84.704 Y133.298 E19.86296
G1 X83.847 Y133.011 E19.89302
G1 X83.02 Y132.65 E19.92303
G1 X82.227 Y132.217 E19.95308
G1 X81.476 Y131.716 E19.98311
G1 X80.772 Y131.15 E20.01315
G1 X80.121 Y130.524 E20.04319
G1 X79.528 Y129.843 E20.07322
G1 X78.998 Y129.112 E20.10326
G1 X78.534 Y128.337 E20.1333
G1 X78.14 Y127.524 E20.16335
G1 X77.82 Y126.68 E20.19337
G1 X77.576 Y125.81 E20.22342
G1 X77.41 Y124.922 E20.25347
G1 X77.313 Y123.767 E20.29202
G1 X77.3 Y123.158 E20.31228
G1 X77.301 Y112.036 E20.6822
G1 X77.31 Y111.371 E20.70432
G1 X77.362 Y110.469 E20.73437
G1 X77.494 Y109.576 E20.76439
G1 X77.704 Y108.698 E20.79442
G1 X77.991 Y107.841 E20.82448
G1 X78.353 Y107.014 E20.8545
G1 X78.786 Y106.222 E20.88453
G1 X79.288 Y105.471 E20.91457
G1 X79.855 Y104.767 E20.94464
G1 X80.481 Y104.117 E20.97465
G1 X81.162 Y103.524 E21.00469
G1 F2700 E16.00469
;MESH:potting_box_01.stl
G0 F6000 X87.914 Y110.835
G0 X88.1 Y122.9
;TYPE:WALL-INNER
G1 F2700 E21.00469
G1 F1200 X146.9 Y122.9 E22.96038
G1 X146.9 Y112.1 E23.31959
G1 X88.1 Y112.1 E25.27529
G1 X88.1 Y122.9 E25.6345
G0 F6000 X87.7 Y123.3
;TYPE:WALL-OUTER
G1 F1200 X147.3 Y123.3 E27.6168
G1 X147.3 Y111.7 E28.00262
G1 X87.7 Y111.7 E29.98492
G1 X87.7 Y123.3 E30.37074
G0 F6000 X87.97 Y123.03
G0 X88.2 Y122.54
G0 X88.46 Y122.54
;TYPE:SKIN
G1 F1200 X146.54 Y122.54 E32.30249
G1 X146.54 Y112.46 E32.63775
G1 X88.46 Y112.46 E34.5695
G1 X88.46 Y122.54 E34.90476
G0 F6000 X88.963 Y122.339
G1 F1200 X88.659 Y122.035 E34.91906
G0 F6000 X88.659 Y121.469
G1 F1200 X89.529 Y122.339 E34.95998
G0 F6000 X90.095 Y122.339
G1 F1200 X88.659 Y120.903 E35.02753
G0 F6000 X88.659 Y120.338
G1 F1200 X90.66 Y122.339 E35.12165
G0 F6000 X91.226 Y122.339
G1 F1200 X88.659 Y119.772 E35.24239
G0 F6000 X88.659 Y119.206
G1 F1200 X91.792 Y122.339 E35.38976
G0 F6000 X92.358 Y122.339
G1 F1200 X88.659 Y118.641 E35.56372
G0 F6000 X88.659 Y118.075
G1 F1200 X92.923 Y122.339 E35.76429
G0 F6000 X93.489 Y122.339
G1 F1200 X88.659 Y117.509 E35.99148
G0 F6000 X88.659 Y116.944
G1 F1200 X94.055 Y122.339 E36.24527
G0 F6000 X94.62 Y122.339
G1 F1200 X88.659 Y116.378 E36.52565
G0 F6000 X88.659 Y115.812
G1 F1200 X95.186 Y122.339 E36.83266
G0 F6000 X95.752 Y122.339
G1 F1200 X88.659 Y115.247 E37.16627
G0 F6000 X88.659 Y114.681
G1 F1200 X96.317 Y122.339 E37.52648
G0 F6000 X96.883 Y122.339
G1 F1200 X88.659 Y114.115 E37.91331
G0 F6000 X88.659 Y113.55
G1 F1200 X97.449 Y122.339 E38.32674
G0 F6000 X98.014 Y122.339
G1 F1200 X88.659 Y112.984 E38.76678
G0 F6000 X88.901 Y112.659
G1 F1200 X98.58 Y122.339 E39.22207
G0 F6000 X99.146 Y122.339
G1 F1200 X89.466 Y112.659 E39.67739
G0 F6000 X90.032 Y112.659
G1 F1200 X99.711 Y122.339 E40.13268
G0 F6000 X100.277 Y122.339
G1 F1200 X90.598 Y112.659 E40.58797
G0 F6000 X91.163 Y112.659
G1 F1200 X100.843 Y122.339 E41.04329
G0 F6000 X101.409 Y122.339
G1 F1200 X91.729 Y112.659 E41.49861
G0 F6000 X92.295 Y112.659
G1 F1200 X101.974 Y122.339 E41.9539
G0 F6000 X102.54 Y122.339
G1 F1200 X92.86 Y112.659 E42.40922
G0 F6000 X93.426 Y112.659
G1 F1200 X103.106 Y122.339 E42.86454
G0 F6000 X103.671 Y122.339
G1 F1200 X93.992 Y112.659 E43.31983
G0 F6000 X94.557 Y112.659
G1 F1200 X104.237 Y122.339 E43.77515
G0 F6000 X104.803 Y122.339
G1 F1200 X95.123 Y112.659 E44.23047
G0 F6000 X95.689 Y112.659
G1 F1200 X105.368 Y122.339 E44.68576
G0 F6000 X105.934 Y122.339
G1 F1200 X96.254 Y112.659 E45.14108
G0 F6000 X96.82 Y112.659
G1 F1200 X106.5 Y122.339 E45.5964
G0 F6000 X107.065 Y122.339
G1 F1200 X97.386 Y112.659 E46.05169
G0 F6000 X97.951 Y112.659
G1 F1200 X107.631 Y122.339 E46.50701
G0 F6000 X108.197 Y122.339
G1 F1200 X98.517 Y112.659 E46.96233
G0 F6000 X99.083 Y112.659
G1 F1200 X108.762 Y122.339 E47.41762
G0 F6000 X109.328 Y122.339
G1 F1200 X99.649 Y112.659 E47.87291
G0 F6000 X100.214 Y112.659
G1 F1200 X109.894 Y122.339 E48.32823
G0 F6000 X110.459 Y122.339
G1 F1200 X100.78 Y112.659 E48.78353
G0 F6000 X101.346 Y112.659
G1 F1200 X111.025 Y122.339 E49.23882
G0 F6000 X111.591 Y122.339
G1 F1200 X101.911 Y112.659 E49.69414
G0 F6000 X102.477 Y112.659
G1 F1200 X112.157 Y122.339 E50.14945
G0 F6000 X112.722 Y122.339
G1 F1200 X103.043 Y112.659 E50.60475
G0 F6000 X103.608 Y112.659
G1 F1200 X113.288 Y122.339 E51.06007
G0 F6000 X113.854 Y122.339
G1 F1200 X104.174 Y112.659 E51.51538
G0 F6000 X104.74 Y112.659
G1 F1200 X114.419 Y122.339 E51.97068
G0 F6000 X114.985 Y122.339
G1 F1200 X105.305 Y112.659 E52.426
G0 F6000 X105.871 Y112.659
G1 F1200 X115.551 Y122.339 E52.88131
G0 F6000 X116.116 Y122.339
G1 F1200 X106.437 Y112.659 E53.33661
G0 F6000 X107.002 Y112.659
G1 F1200 X116.682 Y122.339 E53.79192
G0 F6000 X117.248 Y122.339
G1 F1200 X107.568 Y112.659 E54.24724
G0 F6000 X108.134 Y112.659
G1 F1200 X117.813 Y122.339 E54.70254
G0 F6000 X118.379 Y122.339
G1 F1200 X108.699 Y112.659 E55.15785
G0 F6000 X109.265 Y112.659
G1 F1200 X118.945 Y122.339 E55.61317
G0 F6000 X119.51 Y122.339
G1 F1200 X109.831 Y112.659 E56.06846
G0 F6000 X110.397 Y112.659
G1 F1200 X120.076 Y122.339 E56.52376
G0 F6000 X120.642 Y122.339
G1 F1200 X110.962 Y112.659 E56.97908
G0 F6000 X111.528 Y112.659
G1 F1200 X121.208 Y122.339 E57.43439
G0 F6000 X121.773 Y122.339
G1 F1200 X112.094 Y112.659 E57.88969
G0 F6000 X112.659 Y112.659
G1 F1200 X122.339 Y122.339 E58.34501
G0 F6000 X122.905 Y122.339
G1 F1200 X113.225 Y112.659 E58.80032
G0 F6000 X113.791 Y112.659
G1 F1200 X123.47 Y122.339 E59.25562
G0 F6000 X124.036 Y122.339
G1 F1200 X114.356 Y112.659 E59.71093
G0 F6000 X114.922 Y112.659
G1 F1200 X124.602 Y122.339 E60.16625
G0 F6000 X125.167 Y122.339
G1 F1200 X115.488 Y112.659 E60.62155
G0 F6000 X116.053 Y112.659
G1 F1200 X125.733 Y122.339 E61.07686
G0 F6000 X126.299 Y122.339
G1 F1200 X116.619 Y112.659 E61.53218
G0 F6000 X117.185 Y112.659
G1 F1200 X126.864 Y122.339 E61.98748
G0 F6000 X127.43 Y122.339
G1 F1200 X117.75 Y112.659 E62.44279
G0 F6000 X118.316 Y112.659
G1 F1200 X127.996 Y122.339 E62.89811
G0 F6000 X128.561 Y122.339
G1 F1200 X118.882 Y112.659 E63.3534
G0 F6000 X119.448 Y112.659
G1 F1200 X129.127 Y122.339 E63.8087
G0 F6000 X129.693 Y122.339
G1 F1200 X120.013 Y112.659 E64.26402
G0 F6000 X120.579 Y112.659
G1 F1200 X130.258 Y122.339 E64.71931
G0 F6000 X130.824 Y122.339
G1 F1200 X121.145 Y112.659 E65.1746
G0 F6000 X121.71 Y112.659
G1 F1200 X131.39 Y122.339 E65.62992
G0 F6000 X131.956 Y122.339
G1 F1200 X122.276 Y112.659 E66.08524
G0 F6000 X122.842 Y112.659
G1 F1200 X132.521 Y122.339 E66.54053
G0 F6000 X133.087 Y122.339
G1 F1200 X123.407 Y112.659 E66.99585
G0 F6000 X123.973 Y112.659
G1 F1200 X133.653 Y122.339 E67.45117
G0 F6000 X134.218 Y122.339
G1 F1200 X124.539 Y112.659 E67.90646
G0 F6000 X125.104 Y112.659
G1 F1200 X134.784 Y122.339 E68.36178
G0 F6000 X135.35 Y122.339
G1 F1200 X125.67 Y112.659 E68.8171
G0 F6000 X126.236 Y112.659
G1 F1200 X135.915 Y122.339 E69.27239
G0 F6000 X136.481 Y122.339
G1 F1200 X126.801 Y112.659 E69.72771
G0 F6000 X127.367 Y112.659
G1 F1200 X137.047 Y122.339 E70.18303
G0 F6000 X137.612 Y122.339
G1 F1200 X127.933 Y112.659 E70.63832
G0 F6000 X128.498 Y112.659
G1 F1200 X138.178 Y122.339 E71.09364
G0 F6000 X138.744 Y122.339
G1 F1200 X129.064 Y112.659 E71.54896
G0 F6000 X129.63 Y112.659
G1 F1200 X139.309 Y122.339 E72.00425
G0 F6000 X139.875 Y122.339
G1 F1200 X130.196 Y112.659 E72.45954
G0 F6000 X130.761 Y112.659
G1 F1200 X140.441 Y122.339 E72.91486
G0 F6000 X141.006 Y122.339
G1 F1200 X131.327 Y112.659 E73.37015
G0 F6000 X131.893 Y112.659
G1 F1200 X141.572 Y122.339 E73.82545
G0 F6000 X142.138 Y122.339
G1 F1200 X132.458 Y112.659 E74.28077
G0 F6000 X133.024 Y112.659
G1 F1200 X142.704 Y122.339 E74.73608
G0 F6000 X143.269 Y122.339
G1 F1200 X133.59 Y112.659 E75.19138
G0 F6000 X134.155 Y112.659
G1 F1200 X143.835 Y122.339 E75.6467
G0 F6000 X144.401 Y122.339
G1 F1200 X134.721 Y112.659 E76.10201
G0 F6000 X135.287 Y112.659
G1 F1200 X144.966 Y122.339 E76.55731
G0 F6000 X145.532 Y122.339
G1 F1200 X135.852 Y112.659 E77.01262
G0 F6000 X136.418 Y112.659
G1 F1200 X146.098 Y122.339 E77.46794
G0 F6000 X146.339 Y122.014
G1 F1200 X136.984 Y112.659 E77.90797
G0 F6000 X137.549 Y112.659
G1 F1200 X146.339 Y121.449 E78.32143
G0 F6000 X146.339 Y120.883
G1 F1200 X138.115 Y112.659 E78.70826
G0 F6000 X138.681 Y112.659
G1 F1200 X146.339 Y120.317 E79.06847
G0 F6000 X146.339 Y119.752
G1 F1200 X139.247 Y112.659 E79.40208
G0 F6000 X139.812 Y112.659
G1 F1200 X146.339 Y119.186 E79.70909
G0 F6000 X146.339 Y118.62
G1 F1200 X140.378 Y112.659 E79.98947
G0 F6000 X140.944 Y112.659
G1 F1200 X146.339 Y118.055 E80.24326
G0 F6000 X146.339 Y117.489
G1 F1200 X141.509 Y112.659 E80.47045
G0 F6000 X142.075 Y112.659
G1 F1200 X146.339 Y116.923 E80.67102
G0 F6000 X146.339 Y116.357
G1 F1200 X142.641 Y112.659 E80.84496
